KINDER
CUT[SCHLAF MAIN KINDERL SCHLAF]
REG[Europa, Mitteleuropa, Oesterreich]
KEY[K0109  08  F 2/4]
MEL[  5542  1_0
    3  5542  1_0
    1  2222  553
    1  2222  553_
    5542  1_0_ //] >>
FCT[Kinder -, Wiegen - Lied]
